icons/svg/shields/h_topo_watermill_shield.svg

<?xml version="1.0" encoding="UTF-8" standalone="no"?>
<!-- Created with Inkscape (http://www.inkscape.org/) -->

<svg
   xmlns:dc="http://purl.org/dc/elements/1.1/"
   xmlns:cc="http://creativecommons.org/ns#"
   xmlns:rdf="http://www.w3.org/1999/02/22-rdf-syntax-ns#"
   xmlns:svg="http://www.w3.org/2000/svg"
   xmlns="http://www.w3.org/2000/svg"
   xmlns:sodipodi="http://sodipodi.sourceforge.net/DTD/sodipodi-0.dtd"
   xmlns:inkscape="http://www.inkscape.org/namespaces/inkscape"
   version="1.0"
   width="16"
   height="16"
   id="svg2"
   sodipodi:version="0.32"
   inkscape:version="0.91 r13725"
   sodipodi:docname="h_topo_watermill_shield.svg"
   inkscape:output_extension="org.inkscape.output.svg.inkscape">
  <metadata
     id="metadata10">
    <rdf:RDF>
      <cc:Work
         rdf:about="">
        <dc:format>image/svg+xml</dc:format>
        <dc:type
           rdf:resource="http://purl.org/dc/dcmitype/StillImage" />
        <cc:license
           rdf:resource="http://web.resource.org/cc/PublicDomain" />
        <dc:language>en</dc:language>
        <dc:title />
      </cc:Work>
    </rdf:RDF>
  </metadata>
  <sodipodi:namedview
     inkscape:window-height="1006"
     inkscape:window-width="1920"
     inkscape:pageshadow="2"
     inkscape:pageopacity="0.0"
     guidetolerance="10.0"
     gridtolerance="10.0"
     objecttolerance="10.0"
     borderopacity="1.0"
     bordercolor="#666666"
     pagecolor="#ffffff"
     id="base"
     showgrid="false"
     inkscape:zoom="22.627417"
     inkscape:cx="-7.9794917"
     inkscape:cy="10.343028"
     inkscape:window-x="1920"
     inkscape:window-y="0"
     inkscape:current-layer="svg2"
     inkscape:window-maximized="1"
     showguides="true"
     inkscape:guide-bbox="true" />
  <defs
     id="defs4">
    <inkscape:perspective
       sodipodi:type="inkscape:persp3d"
       inkscape:vp_x="0 : 290 : 1"
       inkscape:vp_y="0 : 1000 : 0"
       inkscape:vp_z="580 : 290 : 1"
       inkscape:persp3d-origin="290 : 193.33333 : 1"
       id="perspective12" />
    <style
       type="text/css"
       id="style6">
   
    .fil0 {fill:#EF7900}
   
  </style>
    <inkscape:perspective
       id="perspective6807"
       inkscape:persp3d-origin="29.116032 : 19.410688 : 1"
       inkscape:vp_z="58.232063 : 29.116032 : 1"
       inkscape:vp_y="0 : 1000 : 0"
       inkscape:vp_x="0 : 29.116032 : 1"
       sodipodi:type="inkscape:persp3d" />
    <inkscape:perspective
       id="perspective6954"
       inkscape:persp3d-origin="290 : 193.33333 : 1"
       inkscape:vp_z="580 : 290 : 1"
       inkscape:vp_y="0 : 1000 : 0"
       inkscape:vp_x="0 : 290 : 1"
       sodipodi:type="inkscape:persp3d" />
    <inkscape:perspective
       id="perspective2541"
       inkscape:persp3d-origin="240 : 160 : 1"
       inkscape:vp_z="480 : 240 : 1"
       inkscape:vp_y="0 : 1000 : 0"
       inkscape:vp_x="0 : 240 : 1"
       sodipodi:type="inkscape:persp3d" />
    <inkscape:perspective
       id="perspective2750"
       inkscape:persp3d-origin="215 : 143.33333 : 1"
       inkscape:vp_z="430 : 215 : 1"
       inkscape:vp_y="0 : 1000 : 0"
       inkscape:vp_x="0 : 215 : 1"
       sodipodi:type="inkscape:persp3d" />
    <inkscape:perspective
       id="perspective3730"
       inkscape:persp3d-origin="88.929146 : 101.19778 : 1"
       inkscape:vp_z="177.85829 : 151.79668 : 1"
       inkscape:vp_y="0 : 1000 : 0"
       inkscape:vp_x="0 : 151.79668 : 1"
       sodipodi:type="inkscape:persp3d" />
    <marker
       inkscape:stockid="TriangleInM"
       orient="auto"
       refY="0"
       refX="0"
       id="TriangleInM-3"
       style="overflow:visible"
       inkscape:isstock="true">
      <path
         inkscape:connector-curvature="0"
         id="path4303-6"
         d="m 5.77,0 -8.65,5 0,-10 8.65,5 z"
         style="fill:#ffffff;fill-opacity:1;fill-rule:evenodd;stroke:#ffffff;stroke-width:1pt;stroke-opacity:1"
         transform="scale(-0.4,-0.4)" />
    </marker>
    <marker
       inkscape:stockid="TriangleOutM"
       orient="auto"
       refY="0"
       refX="0"
       id="TriangleOutM-7"
       style="overflow:visible"
       inkscape:isstock="true">
      <path
         inkscape:connector-curvature="0"
         id="path4312-5"
         d="m 5.77,0 -8.65,5 0,-10 8.65,5 z"
         style="fill:#ffffff;fill-opacity:1;fill-rule:evenodd;stroke:#ffffff;stroke-width:1pt;stroke-opacity:1"
         transform="scale(0.4,0.4)" />
    </marker>
    <marker
       inkscape:stockid="TriangleInM"
       orient="auto"
       refY="0"
       refX="0"
       id="TriangleInM"
       style="overflow:visible"
       inkscape:isstock="true">
      <path
         inkscape:connector-curvature="0"
         id="path4303"
         d="m 5.77,0 -8.65,5 0,-10 8.65,5 z"
         style="fill:#ffffff;fill-opacity:1;fill-rule:evenodd;stroke:#ffffff;stroke-width:1pt;stroke-opacity:1"
         transform="scale(-0.4,-0.4)" />
    </marker>
    <marker
       inkscape:stockid="TriangleOutM"
       orient="auto"
       refY="0"
       refX="0"
       id="TriangleOutM"
       style="overflow:visible"
       inkscape:isstock="true">
      <path
         inkscape:connector-curvature="0"
         id="path4312"
         d="m 5.77,0 -8.65,5 0,-10 8.65,5 z"
         style="fill:#ffffff;fill-opacity:1;fill-rule:evenodd;stroke:#ffffff;stroke-width:1pt;stroke-opacity:1"
         transform="scale(0.4,0.4)" />
    </marker>
    <marker
       inkscape:stockid="TriangleInM"
       orient="auto"
       refY="0"
       refX="0"
       id="TriangleInM-3-3"
       style="overflow:visible"
       inkscape:isstock="true">
      <path
         inkscape:connector-curvature="0"
         id="path4303-6-6"
         d="m 5.77,0 -8.65,5 0,-10 8.65,5 z"
         style="fill:#ffffff;fill-opacity:1;fill-rule:evenodd;stroke:#ffffff;stroke-width:1pt;stroke-opacity:1"
         transform="scale(-0.4,-0.4)" />
    </marker>
    <marker
       inkscape:stockid="TriangleOutM"
       orient="auto"
       refY="0"
       refX="0"
       id="TriangleOutM-7-7"
       style="overflow:visible"
       inkscape:isstock="true">
      <path
         inkscape:connector-curvature="0"
         id="path4312-5-5"
         d="m 5.77,0 -8.65,5 0,-10 8.65,5 z"
         style="fill:#ffffff;fill-opacity:1;fill-rule:evenodd;stroke:#ffffff;stroke-width:1pt;stroke-opacity:1"
         transform="scale(0.4,0.4)" />
    </marker>
    <marker
       inkscape:stockid="TriangleInM"
       orient="auto"
       refY="0"
       refX="0"
       id="TriangleInM-3-5"
       style="overflow:visible"
       inkscape:isstock="true">
      <path
         inkscape:connector-curvature="0"
         id="path4303-6-62"
         d="m 5.77,0 -8.65,5 0,-10 8.65,5 z"
         style="fill:#ffffff;fill-opacity:1;fill-rule:evenodd;stroke:#ffffff;stroke-width:1pt;stroke-opacity:1"
         transform="scale(-0.4,-0.4)" />
    </marker>
    <marker
       inkscape:stockid="TriangleOutM"
       orient="auto"
       refY="0"
       refX="0"
       id="TriangleOutM-7-9"
       style="overflow:visible"
       inkscape:isstock="true">
      <path
         inkscape:connector-curvature="0"
         id="path4312-5-1"
         d="m 5.77,0 -8.65,5 0,-10 8.65,5 z"
         style="fill:#ffffff;fill-opacity:1;fill-rule:evenodd;stroke:#ffffff;stroke-width:1pt;stroke-opacity:1"
         transform="scale(0.4,0.4)" />
    </marker>
    <marker
       inkscape:stockid="TriangleInM"
       orient="auto"
       refY="0"
       refX="0"
       id="TriangleInM-3-0"
       style="overflow:visible"
       inkscape:isstock="true">
      <path
         inkscape:connector-curvature="0"
         id="path4303-6-9"
         d="m 5.77,0 -8.65,5 0,-10 8.65,5 z"
         style="fill:#ffffff;fill-opacity:1;fill-rule:evenodd;stroke:#ffffff;stroke-width:1pt;stroke-opacity:1"
         transform="scale(-0.4,-0.4)" />
    </marker>
    <marker
       inkscape:stockid="TriangleOutM"
       orient="auto"
       refY="0"
       refX="0"
       id="TriangleOutM-7-3"
       style="overflow:visible"
       inkscape:isstock="true">
      <path
         inkscape:connector-curvature="0"
         id="path4312-5-6"
         d="m 5.77,0 -8.65,5 0,-10 8.65,5 z"
         style="fill:#ffffff;fill-opacity:1;fill-rule:evenodd;stroke:#ffffff;stroke-width:1pt;stroke-opacity:1"
         transform="scale(0.4,0.4)" />
    </marker>
    <marker
       inkscape:stockid="TriangleInM"
       orient="auto"
       refY="0"
       refX="0"
       id="TriangleInM-0"
       style="overflow:visible"
       inkscape:isstock="true">
      <path
         inkscape:connector-curvature="0"
         id="path4303-62"
         d="m 5.77,0 -8.65,5 0,-10 8.65,5 z"
         style="fill:#ffffff;fill-opacity:1;fill-rule:evenodd;stroke:#ffffff;stroke-width:1pt;stroke-opacity:1"
         transform="scale(-0.4,-0.4)" />
    </marker>
    <marker
       inkscape:stockid="TriangleOutM"
       orient="auto"
       refY="0"
       refX="0"
       id="TriangleOutM-6"
       style="overflow:visible"
       inkscape:isstock="true">
      <path
         inkscape:connector-curvature="0"
         id="path4312-1"
         d="m 5.77,0 -8.65,5 0,-10 8.65,5 z"
         style="fill:#ffffff;fill-opacity:1;fill-rule:evenodd;stroke:#ffffff;stroke-width:1pt;stroke-opacity:1"
         transform="scale(0.4,0.4)" />
    </marker>
    <marker
       inkscape:stockid="TriangleInM"
       orient="auto"
       refY="0"
       refX="0"
       id="TriangleInM-3-0-8"
       style="overflow:visible"
       inkscape:isstock="true">
      <path
         inkscape:connector-curvature="0"
         id="path4303-6-9-7"
         d="m 5.77,0 -8.65,5 0,-10 8.65,5 z"
         style="fill:#ffffff;fill-opacity:1;fill-rule:evenodd;stroke:#ffffff;stroke-width:1pt;stroke-opacity:1"
         transform="scale(-0.4,-0.4)" />
    </marker>
    <marker
       inkscape:stockid="TriangleOutM"
       orient="auto"
       refY="0"
       refX="0"
       id="TriangleOutM-7-3-9"
       style="overflow:visible"
       inkscape:isstock="true">
      <path
         inkscape:connector-curvature="0"
         id="path4312-5-6-2"
         d="m 5.77,0 -8.65,5 0,-10 8.65,5 z"
         style="fill:#ffffff;fill-opacity:1;fill-rule:evenodd;stroke:#ffffff;stroke-width:1pt;stroke-opacity:1"
         transform="scale(0.4,0.4)" />
    </marker>
  </defs>
  <path
     style="color:#000000;font-style:normal;font-variant:normal;font-weight:normal;font-stretch:normal;font-size:medium;line-height:normal;font-family:sans-serif;text-indent:0;text-align:start;text-decoration:none;text-decoration-line:none;text-decoration-style:solid;text-decoration-color:#000000;letter-spacing:normal;word-spacing:normal;text-transform:none;direction:ltr;block-progression:tb;writing-mode:lr-tb;baseline-shift:baseline;text-anchor:start;white-space:normal;clip-rule:nonzero;display:inline;overflow:visible;visibility:visible;opacity:1;isolation:auto;mix-blend-mode:normal;color-interpolation:sRGB;color-interpolation-filters:linearRGB;solid-color:#000000;solid-opacity:1;fill:#ffffff;fill-opacity:1;fill-rule:nonzero;stroke:none;stroke-width:1.10372806;stroke-linecap:round;stroke-linejoin:round;stroke-miterlimit:4;stroke-dasharray:none;stroke-dashoffset:0;stroke-opacity:1;color-rendering:auto;image-rendering:auto;shape-rendering:auto;text-rendering:auto;enable-background:accumulate"
     d="M 7.9642465,1.6453587 C 7.3202228,1.6544322 6.7425964,2.2485174 6.7504379,2.8926516 l 0,0.7232625 C 6.4153764,3.7152235 6.1026166,3.8477329 5.8045043,4.0177266 l -0.5257047,-0.5257047 0.00837,0.010045 C 5.0582758,3.2656987 4.7322232,3.1270401 4.403187,3.1270424 l -0.00335,0 C 3.9143384,3.1290654 3.4449497,3.4470499 3.2630402,3.8971829 3.0816056,4.3461411 3.1986465,4.8992253 3.544309,5.2382321 c 9.086e-4,8.829e-4 7.666e-4,0.00246 0.00167,0.00335 L 4.0867559,5.780679 C 3.9334757,6.0738367 3.8181849,6.3800931 3.7318215,6.7048477 l -0.803625,0 C 2.6868554,6.7504437 2.4470946,6.661276 2.0474111,7.2075569 1.6477274,7.7538377 1.7908444,9.1692977 2.9281965,9.1692977 l 0.8588742,0 c 0.098665,0.2978678 0.2234937,0.5757144 0.3783735,0.8421323 l -0.6278321,0.629506 0.03181,-0.03014 c -0.4981413,0.445029 -0.5225591,1.317407 -0.050227,1.789739 0.4723324,0.472333 1.3447102,0.447915 1.7897398,-0.05022 l -0.030136,0.03181 0.6579679,-0.657968 c 0.2597055,0.134548 0.5291618,0.240609 0.8136704,0.323124 l 0,0.944259 c 0,0.645251 0.5869742,1.232225 1.232225,1.232225 0.6452507,0 1.2322249,-0.586974 1.232225,-1.232225 l 0,-0.949282 c 0.2819675,-0.08366 0.5481721,-0.190029 0.8052994,-0.324799 l 0.666339,0.664666 -0.03014,-0.03181 c 0.44503,0.498139 1.317409,0.522558 1.78974,0.05022 0.472333,-0.472332 0.447914,-1.344709 -0.05022,-1.789739 l 0.03181,0.03014 -0.6429,-0.6428999 c 0.151021,-0.2623718 0.273259,-0.5361205 0.370001,-0.8287384 l 0.882313,0 c 0.181934,0 0.469861,-0.080682 0.783976,-0.3724158 0.511789,-0.4753214 0.448761,-2.0920342 -0.783976,-2.0920342 l -0.827064,0 C 12.125489,6.3862985 12.01251,6.0857114 11.863502,5.7974211 l 0.55584,-0.5558405 C 12.77213,4.8983089 12.887231,4.3321623 12.695589,3.8787665 12.503947,3.4253707 12.01735,3.1132216 11.525309,3.1270423 l -0.0033,0 c -0.315883,0.010224 -0.625781,0.1478256 -0.84548,0.375025 L 10.152451,4.0260977 C 9.8566728,3.8556898 9.5475552,3.7215784 9.2148879,3.6209368 l 0,-0.7282852 C 9.2228998,2.2368831 8.6215701,1.6360464 7.9659207,1.6453587 Z m 0.0067,4.0984874 c 1.1657315,0 2.0777056,0.9119741 2.0777056,2.0777055 0,1.1657314 -0.9119741,2.0777051 -2.0777056,2.0777051 -1.1657316,0 -2.0793797,-0.9125121 -2.0793797,-2.0777051 0,-1.165193 0.9136482,-2.0777054 2.0793797,-2.0777055 z"
     id="path4383"
     inkscape:connector-curvature="0"
     sodipodi:nodetypes="ccccccscsccccczsccccsccccsssccccsccccssscccsccccccccsssss" />
</svg>

<svg width="16" height="16" viewBox="0 0 16 16" fill="none" xmlns="http://www.w3.org/2000/svg">
<path d="M7.96425 1.64537C7.32022 1.65444 6.7426 2.24853 6.75044 2.89266V3.61593C6.41538 3.71524 6.10262 3.84774 5.8045 4.01774L5.2788 3.49203L5.28717 3.50208C5.05827 3.26571 4.73222 3.12705 4.40319 3.12705H4.39984C3.91434 3.12908 3.44495 3.44706 3.26304 3.89719C3.0816 4.34615 3.19865 4.89924 3.54431 5.23824C3.54522 5.23913 3.54507 5.2407 3.54598 5.24159L4.08675 5.78069C3.93347 6.07385 3.81818 6.38011 3.73182 6.70486H2.9282C2.68685 6.75046 2.44709 6.66129 2.04741 7.20757C1.64773 7.75385 1.79084 9.16931 2.9282 9.16931H3.78707C3.88573 9.46718 4.01056 9.74502 4.16544 10.0114L3.53761 10.6409L3.56942 10.6108C3.07128 11.0558 3.04686 11.9282 3.51919 12.4005C3.99153 12.8729 4.8639 12.8485 5.30893 12.3503L5.2788 12.3821L5.93677 11.7242C6.19647 11.8587 6.46593 11.9648 6.75044 12.0473V12.9916C6.75044 13.6368 7.33741 14.2238 7.98266 14.2238C8.62791 14.2238 9.21489 13.6368 9.21489 12.9916V12.0423C9.49685 11.9586 9.76306 11.8522 10.0202 11.7175L10.6865 12.3821L10.6564 12.3503C11.1014 12.8485 11.9738 12.8729 12.4461 12.4005C12.9185 11.9282 12.894 11.0558 12.3959 10.6108L12.4277 10.6409L11.7848 9.99805C11.9358 9.73568 12.0581 9.46193 12.1548 9.16931H13.0371C13.2191 9.16931 13.507 9.08863 13.8211 8.79689C14.3329 8.32157 14.2699 6.70486 13.0371 6.70486H12.2101C12.1255 6.38631 12.0125 6.08572 11.8635 5.79743L12.4193 5.24159C12.7721 4.89832 12.8872 4.33217 12.6956 3.87878C12.5039 3.42538 12.0173 3.11323 11.5253 3.12705H11.522C11.2061 3.13728 10.8962 3.27488 10.6765 3.50208L10.1524 4.02611C9.85667 3.8557 9.54755 3.72159 9.21489 3.62095V2.89266C9.2229 2.23689 8.62157 1.63606 7.96592 1.64537H7.96425ZM7.97095 5.74386C9.13668 5.74386 10.0487 6.65583 10.0487 7.82156C10.0487 8.9873 9.13668 9.89927 7.97095 9.89927C6.80521 9.89927 5.89157 8.98676 5.89157 7.82156C5.89157 6.65637 6.80521 5.74386 7.97095 5.74386V5.74386Z" fill="white"/>
</svg>
